X:1
T:我的中国心
T:我的中国心
%%score [ 1 2 3 ]
L:1/8
M:4/4
K:Eb
V:1 treble nm="Soprano" snm="S."
V:2 treble nm="Alto" snm="A."
V:3 treble-8 nm="Tenor" snm="T."
V:1
 G4 c4 | e2 dc G2 E2 | c8- | c8 | G4 g4 | f2 gf e2 d2 | G8- | G8 | c3 G FGED | C6 z2 | %10
 G c2 B GFEF | G6 GB | c3 d cBGF | E (E2 F) G4 | F3 G (DC) B,2 | C6 z2 | C3 G FGED | C8 | %18
 G c2 B GFEF | G6 GB | c3 d cB(GF) | E E2 F G4 | F3 G DC B,2 | C6 z G | B3 G G2 z G | e3 c c2 ce | %26
 c2 B2 E2 (FE/)F/ | G6 z G | e3 c c3 c | e3 f g4- | g2 gf d3 B | c6 z2 | z8 | c3 e f2 ed | c6 z2 | %35
 c e2 c cBGF | G6 GB | c2 B2 G2 GF | E E2 F G4 | F3 G (DC) B,2 | C6 z/ G,/C/D/ | e3 d d3 c | %42
 c3 G G4 | c3 A A2 G2 | F6 z2 | d3 c c3 B | B3 F F4 | z GEF G2 D2 | C6 z G | B3 G G2 z G | %50
 e3 c c2 ce | c2 B2 E2 FE/F/ | G6 z G | e3 c c3 c | e3 f g4 | g2 gf d3 B | c6 z2 | C3 G (FG)ED | %58
 C6 z2 | G c2 B GFEF | G6 GB | c3 d cBGF | E (E2 F) G4 | F3 G (DC) B,2 | C6 z2 | C3 G (FG)ED | %66
 C6 z2 | G c2 B GFEF | G6 GB | c3 d cBGF | [Be] ([Be]2 [cf]) [eg]4 | [cf]3 [Bg] ([Fd][Gc]) B2 | %72
 [Gc]8- | [Gc]6 z2 |] %74
V:2
 G4 c4 | e2 dc G2 E2 | c8- | c8 | G4 g4 | f2 gf e2 d2 | G8- | G8 | c3 G FGED | C6 z2 | %10
 G c2 B GFEF | G6 GB | c3 d cBGF | E (E2 F) G4 | F3 G (DC) B,2 | C6 z2 | z8 | z8 | z8 | z8 | z8 | %21
 z8 | z8 | z6 z E | G3 E E2 z E | c3 G G2 cB | G2 F2 E2 (FE/)F/ | G6 z E | c3 G G3 E | B3 B e4- | %30
 e2 dc B3 F | G6 z2 | z8 | z8 | z8 | z8 | z8 | z8 | z8 | z8 | z8 | z8 | z8 | z8 | z8 | z8 | z8 | %47
 z8 | z6 z E | G3 E E2 z E | c3 G G2 cB | G2 F2 E2 (FE/)F/ | G6 z E | c3 G G3 E | B3 B e4- | %55
 e2 dc B3 F | G6 z2 | z8 | z8 | z8 | z8 | z8 | z8 | z8 | z8 | z8 | z8 | z8 | z8 | z8 | z8 | z8 | %72
 z8 | z8 |] %74
V:3
 G4 c4 | e2 dc G2 E2 | c8- | c8 | G4 g4 | f2 gf e2 d2 | G8- | G8 | C3 G FGED | C6 z2 | %10
 G c2 B GFEF | G6 GB | c3 d cBGF | E (E2 F) G4 | F3 G (DC) B,2 | C6 z2 | C3 E FCED | C8 | %18
 E C2 G EFED | C6 EF | G3 B GF(ED) | C C2 B, D4 | B,3 C (B,C)(DB,) | C6 z B, | E3 E B,2 z C | %25
 G3 G E2 GF | E2 B,2 B,2 (B,C/)D/ | E6 z C | G3 G E3 G | B3 B B4- | B2 Bc G3 F | E6 z2 | %32
 C3 G (FG)ED | C8 | G c2 B GFEF | G6 GB | c3 d cBGF | E (E2 F) G4 | F3 G (DC) B,2 | C4 (B,C)(DB,) | %40
 C6 z2 | e3 d d3 c | c3 G G4 | c3 A A2 G2 | F6 z2 | d3 c c3 B | B3 F F4 | z GEF G2 D2 | C6 z B, | %49
 E3 E B,2 z C | G3 G E2 GF | E2 B,2 B,2 (B,C/)D/ | E6 z C | G3 G E3 G | B3 B B4 | B2 Bc G3 F | %56
 E6 z2 | C3 E (FC)ED | C6 z2 | E C2 G EDED | C6 EF | G3 B GFED | C ((C2 B,)) D4 | %63
 B,3 C (((B,C)))(DB,) | C6 z2 | C3 E (FC)ED | C6 z2 | E C2 G EDED | C6 EF | G3 B GFEC | %70
 [B,G] (G2 [FA]) [EB]4 | [FG]3 [GB] ([B,F][CE]) [DF]2 | [CE]8- | [CE]6 z2 |] %74

